X:038
T:Fang the Fiddlers
C:J R Findlater
S:Manuscript collection
Z:Nigel Gatherer
L:1/8
M:C|
R:Reel
K:Aminor
z|A/A/A eA cAAc|B/B/B gd BGGB|A/A/A eA cAAc|dGdB A2 a:|
c|Aaag aeea|gage dBGB|Aaag aeea|gegB A2 a:|
<end>
<start>
